packages/core/src/svgs/tokens/branded/WBETH.svg

<svg width="24" height="24" viewBox="0 0 24 24" fill="none" xmlns="http://www.w3.org/2000/svg">
<path d="M18.8706 19.2705C17.0152 21.0277 14.5554 22.0048 12 22C9.38243 22 7.00001 20.9999 5.22354 19.3529L6.05296 18.5176C7.67688 20.0033 9.79899 20.8262 12 20.8234C14.3353 20.8234 16.4589 19.9176 18.0352 18.4352L18.8706 19.2705ZM19.5942 18.5059C21.1498 16.6956 22.0035 14.3869 22 12C22 9.3882 20.9999 7.00587 19.3529 5.22352L18.5294 6.05881C20.0095 7.68302 20.828 9.80257 20.8236 12C20.8236 14.1588 20.0471 16.1411 18.7588 17.6706L19.5942 18.5059ZM6.32943 5.24116C7.85883 3.95293 9.84113 3.17646 12 3.17646C14.2058 3.17646 16.2235 3.98823 17.7647 5.32351L18.6059 4.48822C16.8411 2.94117 14.5295 2 12 2C9.51762 2 7.24118 2.90588 5.49412 4.41176L6.32943 5.24116ZM5.56471 5.9647L4.72942 5.12941C2.9723 6.98488 1.99519 9.44447 2.00002 12C2.00002 14.5293 2.94119 16.8411 4.48825 18.5999L5.32354 17.7647C3.93674 16.1645 3.17431 14.1174 3.17648 12C3.17648 9.66463 4.08236 7.54116 5.56471 5.9647Z" fill="white"/>
<path d="M12 10.247L7.88232 12C9.25292 9.88233 12 5.6353 12 5.5294V10.247Z" fill="#868686"/>
<path d="M12 10.247L16.1176 12C14.7411 9.88233 12 5.6353 12 5.5294V10.247Z" fill="#312706"/>
<path d="M12 14.353L7.88232 12L12 10.2353V14.353Z" fill="#363636"/>
<path d="M12 14.353L16.1176 12L12 10.2353V14.353Z" fill="#130F03"/>
<path d="M12 15.2059L7.88232 12.8823L12 18.4706V15.2059Z" fill="#868686"/>
<path d="M12 15.2059L16.1176 12.8823L12 18.4706V15.2059Z" fill="#312807"/>
</svg>

<svg xmlns="http://www.w3.org/2000/svg" width="24" height="24" fill="none" viewBox="0 0 24 24">
    <path fill="#fff" d="M18.87 19.27A9.97 9.97 0 0 1 12 22c-2.618 0-5-1-6.776-2.647l.829-.835A8.8 8.8 0 0 0 12 20.823a8.78 8.78 0 0 0 6.035-2.388zm.724-.764A9.96 9.96 0 0 0 22 12c0-2.612-1-4.994-2.647-6.776l-.824.835A8.8 8.8 0 0 1 20.824 12a8.78 8.78 0 0 1-2.065 5.67zM6.33 5.24A8.78 8.78 0 0 1 12 3.176a8.78 8.78 0 0 1 5.765 2.148l.84-.836A10 10 0 0 0 12 2a9.93 9.93 0 0 0-6.506 2.412zm-.764.724-.836-.836A9.97 9.97 0 0 0 2 12c0 2.53.941 4.841 2.488 6.6l.836-.835A8.8 8.8 0 0 1 3.176 12a8.78 8.78 0 0 1 2.389-6.035"/>
    <path fill="#868686" d="M12 10.247 7.882 12C9.252 9.882 12 5.635 12 5.53z"/>
    <path fill="#312706" d="M12 10.247 16.118 12C14.74 9.882 12 5.635 12 5.53z"/>
    <path fill="#363636" d="M12 14.353 7.882 12 12 10.235z"/>
    <path fill="#130F03" d="M12 14.353 16.118 12 12 10.235z"/>
    <path fill="#868686" d="m12 15.206-4.118-2.324L12 18.471z"/>
    <path fill="#312807" d="m12 15.206 4.118-2.324L12 18.471z"/>
</svg>
